images/plutus-god.svg

<svg height="250" viewBox="0 0 250 250" width="250" xmlns="http://www.w3.org/2000/svg"><g fill="#213654"><path d="m154.160156 109.464844c0 .105468-.085937.195312-.195312.195312-.105469 0-.191406-.089844-.191406-.195312 0-.105469.085937-.191406.191406-.191406.109375 0 .195312.085937.195312.191406zm0 0"/><path d="m27.261719 68.847656v112.207032l97.175781 56.105468 97.175781-56.105468v-112.207032l-97.175781-56.105468zm80.972656 28.722656c-.054687 0-5.613281-.015624-8.0625.261719-2.960937.332031-7.21875 1.46875-9.476563 3.582031-2.394531 2.246094-2.617187 5-2.074218 12.148438.5 6.574219.3125 9.328125.273437 9.789062.007813.679688-.058593 5.804688-3.433593 9.035157-3.507813 3.359375-9.171876 3.398437-9.410157 3.398437h-3.464843v-2.082031h3.464843c.046875 0 5.074219-.046875 7.96875-2.820313 2.882813-2.761718 2.792969-7.496093 2.792969-7.542968l-.003906-.066406.007812-.070313c.003906-.023437.25-2.613281-.273437-9.484375-.542969-7.148438-.453125-10.84375 2.730469-13.824219 3.390624-3.175781 9.480468-4 10.667968-4.136719 2.566406-.285156 8.0625-.269531 8.296875-.269531zm-1.492187-13.234374c.179687 1.222656.910156 2.3125 2.171874 3.234374 4.308594 3.144532 8.175782-1.933593 8.339844-2.148437l7.355469-10.460937c.183594-.234376 3.660156-4.511719 8.125-4.367188 4.3125.148438 8.410156 3.71875 8.582031 3.871094l-1.375 1.5625c-.039062-.03125-3.71875-3.230469-7.277344-3.351563-3.40625-.097656-6.359374 3.5-6.390624 3.535157l-7.332032 10.429687c-1.285156 1.722656-3.988281 4.042969-7.136718 4.042969-1.320313 0-2.714844-.40625-4.117188-1.429688-1.742188-1.269531-2.75-2.832031-3.007812-4.636718-.4375-3.109376 1.578124-5.757813 1.664062-5.867188l1.648438 1.273438c-.015626.019531-1.570313 2.085937-1.25 4.3125zm42.167968 99.257812-.1875.097656c-.265625.109375-6.636718 2.84375-4.96875 12.351563l-2.054687.359375c-1.832031-10.46875 5.117187-14.117188 6.128906-14.59375 1.554687-1.039063 5.359375-4.15625 5.359375-6.796875 0-3.523438-3.601562-7.558594-4.957031-9.074219-.15625-.175781-.285157-.324219-.382813-.4375-.152344-.175781-.335937-.371094-.539062-.589844-1.128906-1.214844-3.023438-3.242187-3.769532-6.488281-1.078124-4.699219 6.425782-9.652344 7.28125-10.203125l1.125 1.753906c-1.855468 1.191406-7.011718 5.210938-6.375 7.984375.621094 2.699219 2.148438 4.335938 3.265626 5.535157.222656.238281.425781.457031.59375.652343.089843.105469.210937.242188.355468.40625 1.5 1.679688 5.488282 6.144531 5.488282 10.460938 0 4.273437-5.710938 8.152343-6.363282 8.582031zm-12.039062-121.023438c11.667968-8.011718 22.6875-.964843 22.800781-.890624.292969.171874 8.089844 4.902343 8.894531 12.484374.675782 6.351563-2.683594 11.070313-4.15625 12.804688.066406.101562.121094.214844.148438.339844l3.382812 15.351562c.039063.175782.03125.359375-.023437.53125l-.40625 1.316406c-.082031.265626-.265625.488282-.511719.617188l-1.238281.644531.128906.902344c.589844.875 3.015625 4.507813 5.328125 8.285156 5.613281 9.160157 5.148438 10.210938 4.84375 10.90625-.761719 1.730469-5.628906 2.867188-9.859375 3.542969l1.875.960938c.054687.03125.109375.066406.160156.105468.265625.207032 6.457031 5.085938 6.960938 11.222656.507812 6.167969-3.914063 10.523438-4.101563 10.707032-2.351562 2.574218-8.835937 9.964844-10.054687 12.667968-1.300781 2.882813.785156 6.292969.808593 6.328126l-1.765624 1.105468c-.113282-.175781-2.707032-4.375-.941407-8.289062 1.605469-3.5625 10.101563-12.867188 10.460938-13.261719.082031-.082031 3.945312-3.917969 3.515625-9.085937-.402344-4.902344-5.433594-9.15625-6.089844-9.695313l-3.855469-1.976563c-2.578125 4.214844-7.78125 8.859376-18.222656 8.972657-.125.003906-.253906.003906-.378906.003906-3.769531 0-6.816407-.636719-9.296875-1.640625-2.246094 1.734375-5.363282 4.703125-4.859375 6.898438.621093 2.695312 2.148437 4.335937 3.265625 5.53125.222656.242187.425781.457031.59375.65625.09375.105468.214844.242187.359375.40625 1.5 1.679687 5.484375 6.144531 5.484375 10.460937 0 4.269531-5.710938 8.152344-6.363282 8.582031l-.1875.097656c-.265624.109376-6.636718 2.839844-4.96875 12.351563l-2.050781.359375c-1.835937-10.46875 5.113281-14.121094 6.128907-14.59375 1.550781-1.039062 5.355468-4.160156 5.355468-6.796875 0-3.523437-3.597656-7.554687-4.953125-9.074219-.15625-.175781-.289062-.324218-.386719-.4375-.152343-.179687-.335937-.375-.535156-.589844-1.132812-1.214843-3.027344-3.246093-3.773437-6.488281-.722657-3.144531 2.390625-6.394531 4.792969-8.371093-7.902344-4.46875-8.507813-13.035157-8.515626-13.152344l2.082032-.117188c.027344.429688.59375 8.195313 8.242187 11.898438.429688.230468.574219.332031.804688.375l.539062.199218c2.28125.867188 5.097657 1.398438 8.597657 1.359376 10.125-.113282 14.773437-4.707032 16.898437-8.578126.035156-.113281.089844-.210937.160156-.304687 1.339844-2.574219 1.578125-4.761719 1.597657-4.980469l2.074218.183594c-.003906.050781-.1875 1.816406-1.144531 4.144531 4.742187-.695312 8.863281-1.75 9.597656-2.492187-.136719-1.757813-5.273437-10.308594-10.082031-17.417969-.089844-.128906-.148438-.277344-.167969-.433594l-.273437-1.871093c-.0625-.4375.160156-.867188.550781-1.070313l1.507813-.785156.199218-.636719-3.195312-14.492188c-2.238282-.648437-10.84375-2.867187-19.21875-1.347656-9.972656 1.804688-20.710938 5.050782-22.0625 20.707032-.003906.277343-.039063.453124-.042969.484374-.109375.539063-.621094.902344-1.164063.832032-.546874-.074219-.941406-.5625-.898437-1.113282.011719-.136718.023437-.269531.035156-.40625-.011719-.605468-.292969-2.015624-2.460937-3.074218-2.691406-1.316406-4.972656 1.886718-5.066406 2.023437-.171876.253907-4.0625 6.324219 6.582031 14.316407.699219-.523438 1.238281-.875 1.433593-1l1.121094 1.753906c-1.855468 1.191406-7.011718 5.210937-6.375 7.984375.617188 2.699219 2.148438 4.335937 3.265625 5.53125.222657.242187.425781.460937.59375.65625.089844.105469.214844.242187.359375.40625 1.5 1.679687 5.484375 6.144531 5.484375 10.460937 0 4.273438-5.710937 8.152344-6.363281 8.582032l-.1875.097656c-.265625.109375-6.636719 2.839844-4.96875 12.351562l-2.054688.359375c-1.832031-10.46875 5.117188-14.121093 6.132813-14.59375 1.550781-1.039062 5.355469-4.160156 5.355469-6.796875 0-3.519531-3.597656-7.554687-4.953125-9.074218-.15625-.175782-.289063-.324219-.386719-.4375-.152344-.175782-.335938-.371094-.535156-.589844-1.132813-1.210938-3.027344-3.242188-3.773438-6.488282-.664062-2.878906 1.898438-5.855468 4.179688-7.851562-11.800782-9.113281-6.847656-16.535156-6.621094-16.855469 1.148438-1.671875 4.242188-4.398437 7.691406-2.707031.867188.421875 1.527344.902344 2.035156 1.402344 2.589844-13.371094 12.640626-17.085938 23.273438-19.011719 8.0625-1.460937 16.082031.285156 19.320312 1.15625.644532-.679687 4.789063-5.339844 4.113282-11.722656-.699219-6.539063-7.859375-10.894531-7.933594-10.941407-.460938-.300781-10.632812-6.742187-21.480469 1.546876l-1.152343.878906-.464844-1.371094c-.132813-.371094-3.386719-9.230469-17.738282-9.757812-8.65625-.316407-14.90625 3.175781-17.191406 4.691406-3.527344 2.34375-7.613281 8.042968-8.234375 13.992187-.46875 4.515625.988281 8.589844 4.332031 12.121094.117188.011719.191407.019531.21875.023437l-.019531.183594c.019531.019532.042969.042969.066407.066406l-.082032.078126-.179687 1.742187-.515625-.046875c-1.582032-.128906-6.652344-.429688-10.546875.714844-4.78125 1.402344-6.636719 2.304687-8.199219 4.863281-1.496094 2.460937-1.996094 4.265625-2.070312 4.5625-.058594.507813-.511719 4.871094.667968 10.324219 1.183594 5.46875 1.535156 7.394531 1.59375 7.742187.582032 2.082031.207032 6.386719-5.289062 8.167969-.761719.246094-1.535156.359375-2.296875.359375-2.640625 0-5.144531-1.324219-6.632813-2.855469-1.601562-1.652344-2.164062-3.605468-1.535156-5.351562l1.960938.703125c-.496094 1.378906.585937 2.699219 1.070312 3.199219 1.527344 1.574218 4.351562 2.753906 6.789062 1.964843 5.035157-1.632812 3.964844-5.496093 3.917969-5.660156l-.027343-.121094c0-.015625-.304688-1.78125-1.589844-7.707031-1.328125-6.152344-.714844-10.894531-.6875-11.09375l.011718-.085938c.023438-.089843.511719-2.230468 2.339844-5.230468 2.019532-3.316406 4.53125-4.351563 9.390625-5.777344 2.925781-.859375 6.351563-.984375 8.765625-.929688-2.769531-3.601562-3.984375-7.765624-3.523437-12.171874.695312-6.652344 5.128906-12.839844 9.152343-15.507813 2.453126-1.628906 9.15625-5.382813 18.417969-5.039063 12.710938.460938 17.566407 7.078126 19.070313 9.90625zm15.789062 39.902344-13.320312 5.546875-.800782-1.925781 14.105469-5.871094 8.628907 3.441406-.773438 1.9375zm3.199219 6.992188c0 1.042968-.851563 1.890625-1.894531 1.890625-1.039063 0-1.890625-.847657-1.890625-1.890625 0-1.042969.847656-1.890625 1.890625-1.890625 1.042968 0 1.894531.847656 1.894531 1.890625zm0 0"/><path d="m125.132812 0v.351562l107.558594 62.101563v125l-.347656.199219-107.210938 61.898437v.402344h-1.390624v-.402344l-107.558594-62.097656v-125l.34375-.199219 107.214844-61.902344v-.351562h-123.742188v250h250v-250zm0 0"/><path d="m231.308594 63.246094-106.871094-61.699219-106.875 61.699219v123.410156l106.875 61.703125 106.875-61.703125v-123.410156zm-8.441406 118.535156-.3125.179688-98.117188 56.648437-.316406-.179687-98.113282-56.648438v-113.660156l.3125-.179688 98.117188-56.648437 98.429688 56.828125zm0 0"/></g></svg>

<!-- Generator: Adobe Illustrator 19.0.0, SVG Export Plug-In . SVG Version: 6.00 Build 0)  -->
<svg xmlns="http://www.w3.org/2000/svg" xmlns:xlink="http://www.w3.org/1999/xlink" width="250px" height="250px" viewBox="0 0 250 250" version="1.1">
<g id="surface1">
<path style=" stroke:none;fill-rule:nonzero;fill:rgb(12.941177%,21.176471%,32.941177%);fill-opacity:1;" d="M 154.160156 109.464844 C 154.160156 109.570312 154.074219 109.660156 153.964844 109.660156 C 153.859375 109.660156 153.773438 109.570312 153.773438 109.464844 C 153.773438 109.359375 153.859375 109.273438 153.964844 109.273438 C 154.074219 109.273438 154.160156 109.359375 154.160156 109.464844 Z M 154.160156 109.464844 "/>
<path style=" stroke:none;fill-rule:nonzero;fill:rgb(12.941177%,21.176471%,32.941177%);fill-opacity:1;" d="M 27.261719 68.847656 L 27.261719 181.054688 L 124.4375 237.160156 L 221.613281 181.054688 L 221.613281 68.847656 L 124.4375 12.742188 Z M 108.234375 97.570312 C 108.179688 97.570312 102.621094 97.554688 100.171875 97.832031 C 97.210938 98.164062 92.953125 99.300781 90.695312 101.414062 C 88.300781 103.660156 88.078125 106.414062 88.621094 113.5625 C 89.121094 120.136719 88.933594 122.890625 88.894531 123.351562 C 88.902344 124.03125 88.835938 129.15625 85.460938 132.386719 C 81.953125 135.746094 76.289062 135.785156 76.050781 135.785156 L 72.585938 135.785156 L 72.585938 133.703125 L 76.050781 133.703125 C 76.097656 133.703125 81.125 133.65625 84.019531 130.882812 C 86.902344 128.121094 86.8125 123.386719 86.8125 123.339844 L 86.808594 123.273438 L 86.816406 123.203125 C 86.820312 123.179688 87.066406 120.589844 86.542969 113.71875 C 86 106.570312 86.089844 102.875 89.273438 99.894531 C 92.664062 96.71875 98.753906 95.894531 99.941406 95.757812 C 102.507812 95.472656 108.003906 95.488281 108.238281 95.488281 Z M 106.742188 84.335938 C 106.921875 85.558594 107.652344 86.648438 108.914062 87.570312 C 113.222656 90.714844 117.089844 85.636719 117.253906 85.421875 L 124.609375 74.960938 C 124.792969 74.726562 128.269531 70.449219 132.734375 70.59375 C 137.046875 70.742188 141.144531 74.3125 141.316406 74.464844 L 139.941406 76.027344 C 139.902344 75.996094 136.222656 72.796875 132.664062 72.675781 C 129.257812 72.578125 126.304688 76.175781 126.273438 76.210938 L 118.941406 86.640625 C 117.65625 88.363281 114.953125 90.683594 111.804688 90.683594 C 110.484375 90.683594 109.089844 90.277344 107.6875 89.253906 C 105.945312 87.984375 104.9375 86.421875 104.679688 84.617188 C 104.242188 81.507812 106.257812 78.859375 106.34375 78.75 L 107.992188 80.023438 C 107.976562 80.042969 106.421875 82.109375 106.742188 84.335938 Z M 148.910156 183.59375 L 148.722656 183.691406 C 148.457031 183.800781 142.085938 186.535156 143.753906 196.042969 L 141.699219 196.402344 C 139.867188 185.933594 146.816406 182.285156 147.828125 181.808594 C 149.382812 180.769531 153.1875 177.652344 153.1875 175.011719 C 153.1875 171.488281 149.585938 167.453125 148.230469 165.9375 C 148.074219 165.761719 147.945312 165.613281 147.847656 165.5 C 147.695312 165.324219 147.511719 165.128906 147.308594 164.910156 C 146.179688 163.695312 144.285156 161.667969 143.539062 158.421875 C 142.460938 153.722656 149.964844 148.769531 150.820312 148.21875 L 151.945312 149.972656 C 150.089844 151.164062 144.933594 155.183594 145.570312 157.957031 C 146.191406 160.65625 147.71875 162.292969 148.835938 163.492188 C 149.058594 163.730469 149.261719 163.949219 149.429688 164.144531 C 149.519531 164.25 149.640625 164.386719 149.785156 164.550781 C 151.285156 166.230469 155.273438 170.695312 155.273438 175.011719 C 155.273438 179.285156 149.5625 183.164062 148.910156 183.59375 Z M 136.871094 62.570312 C 148.539062 54.558594 159.558594 61.605469 159.671875 61.679688 C 159.964844 61.851562 167.761719 66.582031 168.566406 74.164062 C 169.242188 80.515625 165.882812 85.234375 164.410156 86.96875 C 164.476562 87.070312 164.53125 87.183594 164.558594 87.308594 L 167.941406 102.660156 C 167.980469 102.835938 167.972656 103.019531 167.917969 103.191406 L 167.511719 104.507812 C 167.429688 104.773438 167.246094 104.996094 167 105.125 L 165.761719 105.769531 L 165.890625 106.671875 C 166.480469 107.546875 168.90625 111.179688 171.21875 114.957031 C 176.832031 124.117188 176.367188 125.167969 176.0625 125.863281 C 175.300781 127.59375 170.433594 128.730469 166.203125 129.40625 L 168.078125 130.367188 C 168.132812 130.398438 168.1875 130.433594 168.238281 130.472656 C 168.503906 130.679688 174.695312 135.558594 175.199219 141.695312 C 175.707031 147.863281 171.285156 152.21875 171.097656 152.402344 C 168.746094 154.976562 162.261719 162.367188 161.042969 165.070312 C 159.742188 167.953125 161.828125 171.363281 161.851562 171.398438 L 160.085938 172.503906 C 159.972656 172.328125 157.378906 168.128906 159.144531 164.214844 C 160.75 160.652344 169.246094 151.347656 169.605469 150.953125 C 169.6875 150.871094 173.550781 147.035156 173.121094 141.867188 C 172.71875 136.964844 167.6875 132.710938 167.03125 132.171875 L 163.175781 130.195312 C 160.597656 134.410156 155.394531 139.054688 144.953125 139.167969 C 144.828125 139.171875 144.699219 139.171875 144.574219 139.171875 C 140.804688 139.171875 137.757812 138.535156 135.277344 137.53125 C 133.03125 139.265625 129.914062 142.234375 130.417969 144.429688 C 131.039062 147.125 132.566406 148.765625 133.683594 149.960938 C 133.90625 150.203125 134.109375 150.417969 134.277344 150.617188 C 134.371094 150.722656 134.492188 150.859375 134.636719 151.023438 C 136.136719 152.703125 140.121094 157.167969 140.121094 161.484375 C 140.121094 165.753906 134.410156 169.636719 133.757812 170.066406 L 133.570312 170.164062 C 133.304688 170.273438 126.933594 173.003906 128.601562 182.515625 L 126.550781 182.875 C 124.714844 172.40625 131.664062 168.753906 132.679688 168.28125 C 134.230469 167.242188 138.035156 164.121094 138.035156 161.484375 C 138.035156 157.960938 134.4375 153.929688 133.082031 152.410156 C 132.925781 152.234375 132.792969 152.085938 132.695312 151.972656 C 132.542969 151.792969 132.359375 151.597656 132.160156 151.382812 C 131.027344 150.167969 129.132812 148.136719 128.386719 144.894531 C 127.664062 141.75 130.777344 138.5 133.179688 136.523438 C 125.277344 132.054688 124.671875 123.488281 124.664062 123.371094 L 126.746094 123.253906 C 126.773438 123.683594 127.339844 131.449219 134.988281 135.152344 C 135.417969 135.382812 135.5625 135.484375 135.792969 135.527344 L 136.332031 135.726562 C 138.613281 136.59375 141.429688 137.125 144.929688 137.085938 C 155.054688 136.972656 159.703125 132.378906 161.828125 128.507812 C 161.863281 128.394531 161.917969 128.296875 161.988281 128.203125 C 163.328125 125.628906 163.566406 123.441406 163.585938 123.222656 L 165.660156 123.40625 C 165.65625 123.457031 165.472656 125.222656 164.515625 127.550781 C 169.257812 126.855469 173.378906 125.800781 174.113281 125.058594 C 173.976562 123.300781 168.839844 114.75 164.03125 107.640625 C 163.941406 107.511719 163.882812 107.363281 163.863281 107.207031 L 163.589844 105.335938 C 163.527344 104.898438 163.75 104.46875 164.140625 104.265625 L 165.648438 103.480469 L 165.847656 102.84375 L 162.652344 88.351562 C 160.414062 87.703125 151.808594 85.484375 143.433594 87.003906 C 133.460938 88.808594 122.722656 92.054688 121.371094 107.710938 C 121.367188 107.988281 121.332031 108.164062 121.328125 108.195312 C 121.21875 108.734375 120.707031 109.097656 120.164062 109.027344 C 119.617188 108.953125 119.222656 108.464844 119.265625 107.914062 C 119.277344 107.777344 119.289062 107.644531 119.300781 107.507812 C 119.289062 106.902344 119.007812 105.492188 116.839844 104.433594 C 114.148438 103.117188 111.867188 106.320312 111.773438 106.457031 C 111.601562 106.710938 107.710938 112.78125 118.355469 120.773438 C 119.054688 120.25 119.59375 119.898438 119.789062 119.773438 L 120.910156 121.527344 C 119.054688 122.71875 113.898438 126.738281 114.535156 129.511719 C 115.152344 132.210938 116.683594 133.847656 117.800781 135.042969 C 118.023438 135.285156 118.226562 135.503906 118.394531 135.699219 C 118.484375 135.804688 118.609375 135.941406 118.753906 136.105469 C 120.253906 137.785156 124.238281 142.25 124.238281 146.566406 C 124.238281 150.839844 118.527344 154.71875 117.875 155.148438 L 117.6875 155.246094 C 117.421875 155.355469 111.050781 158.085938 112.71875 167.597656 L 110.664062 167.957031 C 108.832031 157.488281 115.78125 153.835938 116.796875 153.363281 C 118.347656 152.324219 122.152344 149.203125 122.152344 146.566406 C 122.152344 143.046875 118.554688 139.011719 117.199219 137.492188 C 117.042969 137.316406 116.910156 137.167969 116.8125 137.054688 C 116.660156 136.878906 116.476562 136.683594 116.277344 136.464844 C 115.144531 135.253906 113.25 133.222656 112.503906 129.976562 C 111.839844 127.097656 114.402344 124.121094 116.683594 122.125 C 104.882812 113.011719 109.835938 105.589844 110.0625 105.269531 C 111.210938 103.597656 114.304688 100.871094 117.753906 102.5625 C 118.621094 102.984375 119.28125 103.464844 119.789062 103.964844 C 122.378906 90.59375 132.429688 86.878906 143.0625 84.953125 C 151.125 83.492188 159.144531 85.238281 162.382812 86.109375 C 163.027344 85.429688 167.171875 80.769531 166.496094 74.386719 C 165.796875 67.847656 158.636719 63.492188 158.5625 63.445312 C 158.101562 63.144531 147.929688 56.703125 137.082031 64.992188 L 135.929688 65.871094 L 135.464844 64.5 C 135.332031 64.128906 132.078125 55.269531 117.726562 54.742188 C 109.070312 54.425781 102.820312 57.917969 100.535156 59.433594 C 97.007812 61.777344 92.921875 67.476562 92.300781 73.425781 C 91.832031 77.941406 93.289062 82.015625 96.632812 85.546875 C 96.75 85.558594 96.824219 85.566406 96.851562 85.570312 L 96.832031 85.753906 C 96.851562 85.773438 96.875 85.796875 96.898438 85.820312 L 96.816406 85.898438 L 96.636719 87.640625 L 96.121094 87.59375 C 94.539062 87.464844 89.46875 87.164062 85.574219 88.308594 C 80.792969 89.710938 78.9375 90.613281 77.375 93.171875 C 75.878906 95.632812 75.378906 97.4375 75.304688 97.734375 C 75.246094 98.242188 74.792969 102.605469 75.972656 108.058594 C 77.15625 113.527344 77.507812 115.453125 77.566406 115.800781 C 78.148438 117.882812 77.773438 122.1875 72.277344 123.96875 C 71.515625 124.214844 70.742188 124.328125 69.980469 124.328125 C 67.339844 124.328125 64.835938 123.003906 63.347656 121.472656 C 61.746094 119.820312 61.183594 117.867188 61.8125 116.121094 L 63.773438 116.824219 C 63.277344 118.203125 64.359375 119.523438 64.84375 120.023438 C 66.371094 121.597656 69.195312 122.777344 71.632812 121.988281 C 76.667969 120.355469 75.597656 116.492188 75.550781 116.328125 L 75.523438 116.207031 C 75.523438 116.191406 75.21875 114.425781 73.933594 108.5 C 72.605469 102.347656 73.21875 97.605469 73.246094 97.40625 L 73.257812 97.320312 C 73.28125 97.230469 73.769531 95.089844 75.597656 92.089844 C 77.617188 88.773438 80.128906 87.738281 84.988281 86.3125 C 87.914062 85.453125 91.339844 85.328125 93.753906 85.382812 C 90.984375 81.78125 89.769531 77.617188 90.230469 73.210938 C 90.925781 66.558594 95.359375 60.371094 99.382812 57.703125 C 101.835938 56.074219 108.539062 52.320312 117.800781 52.664062 C 130.511719 53.125 135.367188 59.742188 136.871094 62.570312 Z M 152.660156 102.472656 L 139.339844 108.019531 L 138.539062 106.09375 L 152.644531 100.222656 L 161.273438 103.664062 L 160.5 105.601562 Z M 155.859375 109.464844 C 155.859375 110.507812 155.007812 111.355469 153.964844 111.355469 C 152.925781 111.355469 152.074219 110.507812 152.074219 109.464844 C 152.074219 108.421875 152.921875 107.574219 153.964844 107.574219 C 155.007812 107.574219 155.859375 108.421875 155.859375 109.464844 Z M 155.859375 109.464844 "/>
<path style=" stroke:none;fill-rule:nonzero;fill:rgb(12.941177%,21.176471%,32.941177%);fill-opacity:1;" d="M 125.132812 0 L 125.132812 0.351562 L 232.691406 62.453125 L 232.691406 187.453125 L 232.34375 187.652344 L 125.132812 249.550781 L 125.132812 249.953125 L 123.742188 249.953125 L 123.742188 249.550781 L 16.183594 187.453125 L 16.183594 62.453125 L 16.527344 62.253906 L 123.742188 0.351562 L 123.742188 0 L 0 0 L 0 250 L 250 250 L 250 0 Z M 125.132812 0 "/>
<path style=" stroke:none;fill-rule:nonzero;fill:rgb(12.941177%,21.176471%,32.941177%);fill-opacity:1;" d="M 231.308594 63.246094 L 124.4375 1.546875 L 17.5625 63.246094 L 17.5625 186.65625 L 124.4375 248.359375 L 231.3125 186.65625 L 231.3125 63.246094 Z M 222.867188 181.78125 L 222.554688 181.960938 L 124.4375 238.609375 L 124.121094 238.429688 L 26.007812 181.78125 L 26.007812 68.121094 L 26.320312 67.941406 L 124.4375 11.292969 L 222.867188 68.121094 Z M 222.867188 181.78125 "/>
</g>
</svg>
